src/lib/packages/icons/src/assets/filled/line-chart-dots.svg

<svg width="24" height="24" viewBox="0 0 24 24" fill="none" xmlns="http://www.w3.org/2000/svg">
<path d="M23.02 9C23.02 10.104 22.124 11 21.02 11C20.738 11 20.47 10.94 20.226 10.835L16.855 14.2061C16.96 14.4501 17.021 14.717 17.021 15C17.021 16.104 16.125 17 15.021 17C13.917 17 13.016 16.104 13.016 15C13.016 14.727 13.071 14.467 13.17 14.229L9.787 10.8459C9.551 10.9439 9.292 10.999 9.021 10.999C8.739 10.999 8.471 10.939 8.22701 10.834L4.856 14.2051C4.961 14.4491 5.022 14.716 5.022 14.999C5.022 16.103 4.126 16.999 3.022 16.999C1.918 16.999 1.017 16.103 1.017 14.999C1.017 13.895 1.90699 12.999 3.01199 12.999H3.022C3.294 12.999 3.55199 13.0541 3.78799 13.1521L7.172 9.76807C7.073 9.53107 7.017 9.27102 7.017 8.99902C7.017 7.89502 7.90699 6.99902 9.01199 6.99902H9.022C10.126 6.99902 11.022 7.89502 11.022 8.99902C11.022 9.28102 10.962 9.54897 10.856 9.79297L14.224 13.1609C14.465 13.0569 14.731 12.999 15.011 12.999H15.021C15.293 12.999 15.551 13.0541 15.787 13.1521L19.171 9.76807C19.072 9.53107 19.016 9.27102 19.016 8.99902C19.016 7.89502 19.906 6.99902 21.011 6.99902H21.021C22.125 7.00002 23.02 7.896 23.02 9Z" fill="currentColor"/>
</svg>

<svg xmlns="http://www.w3.org/2000/svg" width="24" height="24" fill="none"><path fill="currentColor" d="M23.02 9a2 2 0 0 1-2.794 1.835l-3.371 3.371A2 2 0 0 1 15.021 17a2.005 2.005 0 0 1-1.851-2.771l-3.383-3.383a1.994 1.994 0 0 1-1.56-.012l-3.371 3.371A2 2 0 0 1 3.022 17a2.005 2.005 0 0 1-2.005-2c0-1.104.89-2 1.995-2h.01c.272 0 .53.055.766.153l3.384-3.384A1.996 1.996 0 0 1 9.012 7h.01a2 2 0 0 1 1.834 2.794l3.368 3.368c.241-.104.507-.162.787-.162h.01c.272 0 .53.055.766.153l3.384-3.384A1.996 1.996 0 0 1 21.011 7h.01a2.001 2.001 0 0 1 1.999 2Z"/></svg>
